X:41
T:Scholar/ Teetotaler
T:Scholar
M: 4/4
L: 1/8
R: reel
K: Dmaj
|:dfaf gfeg|fdAG FGA=c|BGFG EFGg|fdec dcBA|
dfaf gfeg|fdAG FGA=c|BGFG EFGg|fdec d4:|
|:a2af dfaf|dfaf bagf|g2ge =cege|=cege afgf|
a2af dfaf|dfaf bagf|g2gf gbag|fdec d4:|
T: Teetotaler
M: 4/4
L: 1/8
R: reel
K: Gmaj
|:G2 GF GABc|dB eB dBAc|BEED EFGA |BGAF GFED|
G2 GF GABc|dB eB dBAc|BEED EFGA |BGAF G4:|
|:Beed e2ef| geaf gfed| Bdd^c d2 de| fdaf gfed|
Beed e2ef|geaf gfed|BEED EFGA|BGAF G4:|

